svg/fluentui-system-icons/ic_fluent_savings_24_regular.svg

<svg width="24" height="24" viewBox="0 0 24 24" fill="none" xmlns="http://www.w3.org/2000/svg">
<path d="M10.0811 4.08886C10.6111 4.45462 11.1177 4.69565 11.5352 4.7488C11.3076 5.20089 11.1488 5.68642 11.0659 6.18807C10.3925 6.04032 9.75356 5.68532 9.22916 5.32344C8.96994 5.14455 8.7245 4.95393 8.5 4.76626V6.99956C8.5 7.30581 8.31381 7.58125 8.02974 7.69544L8.02354 7.698C8.01733 7.70058 8.0067 7.70505 7.99202 7.71139C7.96264 7.7241 7.91715 7.74429 7.85841 7.77193C7.74069 7.82732 7.57111 7.91203 7.3721 8.02575C6.97012 8.25545 6.46791 8.59231 6.03033 9.02989C5.57681 9.48341 5.29723 10.0925 5.13933 10.5655C4.93681 11.1722 4.42116 11.7314 3.68711 11.8537C3.57914 11.8717 3.5 11.9651 3.5 12.0746V13.8275C3.5 13.993 3.61961 14.1342 3.7828 14.1614C4.40671 14.2653 4.89825 14.6726 5.17464 15.1674C5.42601 15.6174 5.87291 16.3118 6.53033 16.9692C7.04118 17.4801 7.63608 17.8076 8.11482 18.008C8.3521 18.1073 8.55481 18.1728 8.69504 18.2129C8.76497 18.2328 8.81882 18.2463 8.853 18.2543C8.87007 18.2583 8.88219 18.261 8.88889 18.2624L8.8937 18.2635L8.89478 18.2637C9.24631 18.3328 9.5 18.6411 9.5 18.9996V20.2496C9.5 20.3876 9.61193 20.4996 9.75 20.4996H11C11 19.6711 11.6716 18.9996 12.5 18.9996H14.5C15.3284 18.9996 16 19.6711 16 20.4996H17.25C17.3881 20.4996 17.5 20.3876 17.5 20.2496V17.9996C17.5 17.7168 17.6597 17.4578 17.9118 17.3301L17.9251 17.323C17.939 17.3154 17.9629 17.3021 17.9953 17.2828C18.0602 17.2442 18.1586 17.1821 18.2796 17.0947C18.5223 16.9194 18.851 16.646 19.1806 16.2615C19.8329 15.5005 20.5 14.2936 20.5 12.4996C20.5 11.493 20.3118 10.6792 19.9913 10.012C20.3492 9.53702 20.619 9.00252 20.7894 8.43604C20.8886 8.57192 20.9827 8.71297 21.0713 8.85944C21.6755 9.85764 22 11.0625 22 12.4996C22 14.7055 21.1671 16.2487 20.3194 17.2377C19.899 17.7282 19.4777 18.0797 19.1579 18.3107C19.1021 18.351 19.0493 18.3877 19 18.4209V20.2496C19 21.2161 18.2165 21.9996 17.25 21.9996H16C15.1716 21.9996 14.5 21.328 14.5 20.4996H12.5C12.5 21.328 11.8284 21.9996 11 21.9996H9.75C8.7835 21.9996 8 21.2161 8 20.2496V19.567C7.86194 19.5204 7.7053 19.4627 7.53573 19.3917C6.93965 19.1422 6.15955 18.7198 5.46967 18.0299C4.68564 17.2459 4.16052 16.4278 3.8651 15.8989C3.77791 15.7429 3.64768 15.6595 3.5362 15.6409C2.64973 15.4932 2 14.7262 2 13.8275V12.0746C2 11.2319 2.60926 10.5127 3.44051 10.3741C3.52742 10.3596 3.6555 10.2733 3.71651 10.0906C3.90886 9.51435 4.28209 8.65682 4.96967 7.96923C5.53209 7.40682 6.15488 6.99368 6.6279 6.72338C6.76427 6.64545 6.88983 6.57848 7 6.52239V3.67072C7 2.73282 8.13062 2.34784 8.73986 2.9545C9.07031 3.28356 9.55006 3.72239 10.0811 4.08886ZM13.07 8.84759C12.5799 8.64464 12.1664 8.25933 12.0679 7.73811C11.7239 5.91664 12.6886 4.04182 14.4689 3.30419C16.5098 2.45862 18.8498 3.42763 19.6954 5.46854C20.433 7.2489 19.7898 9.25683 18.2587 10.3018C17.8206 10.6008 17.2557 10.581 16.7656 10.378L13.07 8.84759ZM17.4641 9.0271C18.3837 8.36497 18.7617 7.1338 18.3096 6.04268C17.7811 4.76711 16.3186 4.16148 15.0431 4.68996C13.952 5.14203 13.3489 6.27997 13.5311 7.39836C13.5369 7.40293 13.544 7.40813 13.5525 7.41379C13.5761 7.42952 13.6068 7.44635 13.6439 7.46172L17.3395 8.99214C17.3767 9.00751 17.4103 9.01731 17.4381 9.02287C17.4481 9.02487 17.4568 9.02621 17.4641 9.0271ZM9 9.99953C9 10.5518 8.55228 10.9995 8 10.9995C7.44772 10.9995 7 10.5518 7 9.99953C7 9.44725 7.44772 8.99953 8 8.99953C8.55228 8.99953 9 9.44725 9 9.99953Z" fill="#212121"/>
</svg>

<svg xmlns="http://www.w3.org/2000/svg" width="24" height="24"><path d="M10.081 4.089c.53.366 1.037.607 1.454.66a5.024 5.024 0 0 0-.47 1.44c-.672-.149-1.311-.504-1.836-.866a9.88 9.88 0 0 1-.729-.557V7a.75.75 0 0 1-.47.695l-.006.003a2.516 2.516 0 0 0-.166.074c-.117.055-.287.14-.486.254A6.45 6.45 0 0 0 6.03 9.03c-.453.453-.733 1.063-.89 1.536-.203.606-.719 1.165-1.453 1.288a.224.224 0 0 0-.187.22v1.754c0 .165.12.306.283.333.624.104 1.115.512 1.392 1.006a8.35 8.35 0 0 0 1.355 1.802 4.952 4.952 0 0 0 1.585 1.039 5.276 5.276 0 0 0 .774.254l.005.002A.75.75 0 0 1 9.5 19v1.25c0 .138.112.25.25.25H11a1.5 1.5 0 0 1 1.5-1.5h2a1.5 1.5 0 0 1 1.5 1.5h1.25a.25.25 0 0 0 .25-.25V18c0-.283.16-.542.412-.67l.013-.007a3.873 3.873 0 0 0 .354-.228c.243-.176.572-.449.902-.834.652-.76 1.319-1.967 1.319-3.761 0-1.007-.188-1.82-.509-2.488a5.02 5.02 0 0 0 .798-1.576c.1.136.194.277.282.423.604.999.929 2.204.929 3.64 0 2.207-.833 3.75-1.68 4.739A6.74 6.74 0 0 1 19 18.42v1.829A1.75 1.75 0 0 1 17.25 22H16a1.5 1.5 0 0 1-1.5-1.5h-2A1.5 1.5 0 0 1 11 22H9.75A1.75 1.75 0 0 1 8 20.25v-.683a6.998 6.998 0 0 1-.464-.175A6.457 6.457 0 0 1 5.47 18.03a9.863 9.863 0 0 1-1.605-2.131.49.49 0 0 0-.329-.258A1.838 1.838 0 0 1 2 13.828v-1.753c0-.843.61-1.562 1.44-1.7.087-.015.216-.102.277-.284.192-.577.565-1.434 1.253-2.122a7.944 7.944 0 0 1 1.658-1.246c.136-.078.262-.145.372-.2V3.67c0-.938 1.13-1.323 1.74-.716.33.329.81.767 1.341 1.134Zm2.989 4.759c-.49-.203-.904-.589-1.002-1.11a4.002 4.002 0 0 1 7.627-2.27 4.001 4.001 0 0 1-1.436 4.834c-.438.299-1.003.279-1.493.076l-3.696-1.53Zm4.394.18a2.502 2.502 0 0 0-2.42-4.338 2.502 2.502 0 0 0-1.513 2.708l.021.016a.536.536 0 0 0 .092.048l3.696 1.53a.538.538 0 0 0 .124.035ZM9 10a1 1 0 1 1-2 0 1 1 0 0 1 2 0Z"/></svg>
